packages/icons/svg/24/AddRubi.svg

<svg width="24" height="24" viewBox="0 0 24 24" fill="none" xmlns="http://www.w3.org/2000/svg">
<path d="M2.5 6C2.5 5.44772 2.94772 5 3.5 5H4.5C5.05228 5 5.5 5.44772 5.5 6V16.5C5.5 16.7761 5.27614 17 5 17C4.72386 17 4.5 17.2239 4.5 17.5V18C4.5 18.5523 4.05228 19 3.5 19H1.5C0.947715 19 0.5 18.5523 0.5 18C0.5 17.4477 0.947715 17 1.5 17C2.05228 17 2.5 16.5523 2.5 16V6Z" fill="#858585"/>
<path d="M9.5 6C9.5 5.44772 9.05228 5 8.5 5H7.5C6.94772 5 6.5 5.44772 6.5 6V18C6.5 18.5523 6.94772 19 7.5 19H9C9.27614 19 9.5 18.7761 9.5 18.5C9.5 18.2239 9.72386 18 10 18H10.5C11.0523 18 11.5 17.5523 11.5 17C11.5 16.4477 11.0523 16 10.5 16C9.94772 16 9.5 15.5523 9.5 15V6Z" fill="#858585"/>
<path d="M16.5 6C16.5 5.44772 16.0523 5 15.5 5H14.5C13.9477 5 13.5 5.44772 13.5 6V16.5C13.5 16.7761 13.7239 17 14 17C14.2761 17 14.5 17.2239 14.5 17.5V18C14.5 18.5523 14.9477 19 15.5 19H21.5C22.0523 19 22.5 18.5523 22.5 18C22.5 17.4477 22.0523 17 21.5 17H17.5C16.9477 17 16.5 16.5523 16.5 16V13C16.5 12.4477 16.9477 12 17.5 12H21.5C22.0523 12 22.5 11.5523 22.5 11C22.5 10.4477 22.0523 10 21.5 10H17.5C16.9477 10 16.5 9.55228 16.5 9V6Z" fill="#858585"/>
<path d="M20.5 5.5C20.5 5.22386 20.7239 5 21 5C21.2761 5 21.5 5.22386 21.5 5.5V7.5C21.5 7.77614 21.2761 8 21 8C20.7239 8 20.5 7.77614 20.5 7.5V5.5Z" fill="#858585"/>
<path d="M23.5 5.5C23.5 5.22386 23.2761 5 23 5C22.7239 5 22.5 5.22386 22.5 5.5V7.5C22.5 7.77614 22.7239 8 23 8C23.2761 8 23.5 7.77614 23.5 7.5V5.5Z" fill="#858585"/>
</svg>

<svg width="24" height="24" fill="none" xmlns="http://www.w3.org/2000/svg" viewBox="0 0 24 24"><path d="M2.5 6a1 1 0 011-1h1a1 1 0 011 1v10.5a.5.5 0 01-.5.5.5.5 0 00-.5.5v.5a1 1 0 01-1 1h-2a1 1 0 110-2 1 1 0 001-1V6zM9.5 6a1 1 0 00-1-1h-1a1 1 0 00-1 1v12a1 1 0 001 1H9a.5.5 0 00.5-.5.5.5 0 01.5-.5h.5a1 1 0 100-2 1 1 0 01-1-1V6zM16.5 6a1 1 0 00-1-1h-1a1 1 0 00-1 1v10.5a.5.5 0 00.5.5.5.5 0 01.5.5v.5a1 1 0 001 1h6a1 1 0 100-2h-4a1 1 0 01-1-1v-3a1 1 0 011-1h4a1 1 0 100-2h-4a1 1 0 01-1-1V6zM20.5 5.5a.5.5 0 011 0v2a.5.5 0 01-1 0v-2zM23.5 5.5a.5.5 0 00-1 0v2a.5.5 0 001 0v-2z" fill="currentColor"></path></svg>
